resources/images/tap.svg

<svg xmlns="http://www.w3.org/2000/svg" xmlns:xlink="http://www.w3.org/1999/xlink" preserveAspectRatio="none" width="285" height="427" viewBox="0 0 285 427"><defs><linearGradient id="a" gradientUnits="userSpaceOnUse" x1="6.35" y1="338.35" x2="87.75" y2="338.35" spreadMethod="pad"><stop offset=".392%" stop-color="#626262"/><stop offset="100%" stop-color="#C8C8C8"/><stop offset="100%" stop-color="#D6D1A0"/></linearGradient><linearGradient id="b" gradientUnits="userSpaceOnUse" x1="47.837" y1="320.15" x2="85.263" y2="320.15" spreadMethod="pad"><stop offset=".392%" stop-color="#626262"/><stop offset="100%" stop-color="#C8C8C8"/><stop offset="100%" stop-color="#D6D1A0"/></linearGradient><linearGradient id="c" gradientUnits="userSpaceOnUse" x1="145.563" y1="327.188" x2="164.637" y2="281.313" spreadMethod="pad"><stop offset=".392%" stop-color="#626262"/><stop offset="100%" stop-color="#C8C8C8"/><stop offset="100%" stop-color="#D6D1A0"/></linearGradient><linearGradient id="d" gradientUnits="userSpaceOnUse" x1="25.15" y1="214.75" x2="91.85" y2="214.75" spreadMethod="pad"><stop offset=".392%" stop-color="#626262"/><stop offset="100%" stop-color="#C8C8C8"/><stop offset="100%" stop-color="#D6D1A0"/></linearGradient><linearGradient id="e" gradientUnits="userSpaceOnUse" x1="56.55" y1="141.05" x2="84.05" y2="141.05" spreadMethod="pad"><stop offset=".392%" stop-color="#626262"/><stop offset="100%" stop-color="#C8C8C8"/><stop offset="100%" stop-color="#D6D1A0"/></linearGradient><linearGradient id="f" gradientUnits="userSpaceOnUse" x1="48.537" y1="177.6" x2="84.563" y2="177.6" spreadMethod="pad"><stop offset=".392%" stop-color="#626262"/><stop offset="100%" stop-color="#C8C8C8"/><stop offset="100%" stop-color="#D6D1A0"/></linearGradient><linearGradient id="g" gradientUnits="userSpaceOnUse" x1="31.637" y1="74.85" x2="91.862" y2="74.85" spreadMethod="pad"><stop offset=".392%" stop-color="#626262"/><stop offset="100%" stop-color="#C8C8C8"/><stop offset="100%" stop-color="#D6D1A0"/></linearGradient><linearGradient id="h" gradientUnits="userSpaceOnUse" x1="-18" y1="99.7" x2="117" y2="99.7" spreadMethod="pad"><stop offset=".392%" stop-color="#626262"/><stop offset="100%" stop-color="#C8C8C8"/><stop offset="100%" stop-color="#D6D1A0"/></linearGradient><g id="i"><path fill="url(#a)" d="M46.3 326.2v-15.35Q6.1 315.2 6.65 347.1q19.45 26.65 64.9 27.2Q129.6 376 135.8 345q-10.9-30.35-38.4-33.6v17.25q-28.75 11.45-51.1-2.45z"/><path fill="url(#b)" d="M46.3 310.85v15.35q22.35 13.9 51.1 2.45v-32.6q-25.35 11.8-51.1 0v14.8z"/><path fill="url(#c)" d="M97.4 296.05h7.4l107.45 41.6q6.8 5.35 9.35 12.15 1.7 3.9 3.45 11.7 1 3.7 8.6 5.7 7.3 2.15 16.85 1.55 23.4-.75 27.85-11.65-4.1-20.7-11.55-33.25-8.45-14.2-24.6-24.7L131.25 257.2l-21.85-27.65q-40.75 22.75-78.2 0-3 21.4-2.6 32.85.55 15.95 7.1 26.1l10.6 7.55q25.75 11.8 51.1 0z"/><path fill="url(#d)" d="M92.35 182.25q-22.05 12.8-43.25 0L31.9 223.7q-.7 2.1-.7 5.85 37.45 22.75 78.2 0l-17.05-47.3z"/><path fill="url(#e)" d="M57.75 116.85L56.6 161.3q16.6 10.6 27.5 0v-40.45h-2.4q-13.75 0-23.95-4z"/><path fill="url(#f)" d="M56.6 161.3l-7.5 20.95q21.2 12.8 43.25 0L84.1 161.3q-10.9 10.6-27.5 0z"/><path fill="url(#g)" d="M48.3 66.05q1.25 4.75 6.35 8.3-4.6 1.1-7 3.65l-3.8 5.25Q50.7 94.3 71.95 96q21.85 1.5 32.2-9.65-2.35-14.85-35.5-16.4l-7.1-13.85q-4.45-5.95-13.6 0-.7 6.8.35 9.95z"/><path fill="url(#h)" d="M134.3 82.4q-15.25-5.1-30.15 3.95Q93.8 97.5 71.95 96q-21.25-1.7-28.1-12.75-2.9 2-2.9 6.9Q33 85.55 25.4 85.1q-6.55-.4-9.55 2.2-10.8 9.55-.85 24 3.05 2 13.1 1.35 9.75-.65 19.85-3.55.25-5.15-.7-7.65-1.15-2.5-1.85-4 .7 1.5 1.85 4 .95 2.5.7 7.65 2.75 3.4 7.35 6.4 1.3.8 2.45 1.35 10.2 4 23.95 4h.1q1.05-.35 2.3-.45-6.7-13.3 5.15-17.05-11.85 3.75-5.15 17.05h.4q12.05 17.15 22.45 9 8.2-6.3 4.45-16-3.25-8.7-10.85-11.1 18.85 4.7 38.1 0 10.4-14.8-4.35-19.9z"/></g><path id="j" stroke="#000" stroke-width="2" stroke-linejoin="round" stroke-linecap="round" fill="none" d="M84.1 120.4h.4q12.05 17.15 22.45 9 8.2-6.3 4.45-16-3.25-8.7-10.85-11.1 18.85 4.7 38.1 0 10.4-14.8-4.35-19.9-15.25-5.1-30.15 3.95Q93.8 97.5 71.95 96q-21.25-1.7-28.1-12.75-2.9 2-2.9 6.9Q33 85.55 25.4 85.1q-6.55-.4-9.55 2.2-10.8 9.55-.85 24 3.05 2 13.1 1.35 9.75-.65 19.85-3.55.25-5.15-.7-7.65-1.15-2.5-1.85-4m58.75-11.1q-2.35-14.85-35.5-16.4l-7.1-13.85q-4.45-5.95-13.6 0-.7 6.8.35 9.95 1.25 4.75 6.35 8.3-4.6 1.1-7 3.65l-3.8 5.25m4.1 25.85q2.75 3.4 7.35 6.4 1.3.8 2.45 1.35 10.2 4 23.95 4h.1q1.05-.35 2.3-.45-6.7-13.3 5.15-17.05M56.6 161.3l-7.5 20.95q21.2 12.8 43.25 0L84.1 161.3q-10.9 10.6-27.5 0l1.15-44.45m26.35 3.55V161.3m13.3 134.75h7.4l107.45 41.6q6.8 5.35 9.35 12.15 1.7 3.9 3.45 11.7 1 3.7 8.6 5.7 7.3 2.15 16.85 1.55 23.4-.75 27.85-11.65-4.1-20.7-11.55-33.25-8.45-14.2-24.6-24.7L131.25 257.2l-21.85-27.65q-40.75 22.75-78.2 0-3 21.4-2.6 32.85.55 15.95 7.1 26.1l10.6 7.55q25.75 11.8 51.1 0v15.35q27.5 3.25 38.4 33.6-6.2 31-64.25 29.3-45.45-.55-64.9-27.2-.55-31.9 39.65-36.25v-14.8m2.8-113.8L31.9 223.7q-.7 2.1-.7 5.85m15.1 81.3v15.35q22.35 13.9 51.1 2.45V311.4m12-81.85l-17.05-47.3"/></defs><g><use xlink:href="#i"/><use xlink:href="#j"/></g></svg>

<svg xmlns="http://www.w3.org/2000/svg" version="1.1" xmlns:xlink="http://www.w3.org/1999/xlink" preserveAspectRatio="none" x="0px" y="0px" width="285px" height="427px" viewBox="0 0 285 427">
<defs>
<linearGradient id="Gradient_1" gradientUnits="userSpaceOnUse" x1="6.349999999999994" y1="338.35" x2="87.75" y2="338.35" spreadMethod="pad">
<stop  offset="0.39215686274509803%" stop-color="#626262"/>

<stop  offset="100%" stop-color="#C8C8C8"/>

<stop  offset="100%" stop-color="#D6D1A0"/>
</linearGradient>

<linearGradient id="Gradient_2" gradientUnits="userSpaceOnUse" x1="47.83749999999999" y1="320.15" x2="85.2625" y2="320.15" spreadMethod="pad">
<stop  offset="0.39215686274509803%" stop-color="#626262"/>

<stop  offset="100%" stop-color="#C8C8C8"/>

<stop  offset="100%" stop-color="#D6D1A0"/>
</linearGradient>

<linearGradient id="Gradient_3" gradientUnits="userSpaceOnUse" x1="145.5625" y1="327.1875" x2="164.6375" y2="281.3125" spreadMethod="pad">
<stop  offset="0.39215686274509803%" stop-color="#626262"/>

<stop  offset="100%" stop-color="#C8C8C8"/>

<stop  offset="100%" stop-color="#D6D1A0"/>
</linearGradient>

<linearGradient id="Gradient_4" gradientUnits="userSpaceOnUse" x1="25.15" y1="214.75" x2="91.85" y2="214.75" spreadMethod="pad">
<stop  offset="0.39215686274509803%" stop-color="#626262"/>

<stop  offset="100%" stop-color="#C8C8C8"/>

<stop  offset="100%" stop-color="#D6D1A0"/>
</linearGradient>

<linearGradient id="Gradient_5" gradientUnits="userSpaceOnUse" x1="56.55" y1="141.05" x2="84.05" y2="141.05" spreadMethod="pad">
<stop  offset="0.39215686274509803%" stop-color="#626262"/>

<stop  offset="100%" stop-color="#C8C8C8"/>

<stop  offset="100%" stop-color="#D6D1A0"/>
</linearGradient>

<linearGradient id="Gradient_6" gradientUnits="userSpaceOnUse" x1="48.537499999999994" y1="177.6" x2="84.5625" y2="177.6" spreadMethod="pad">
<stop  offset="0.39215686274509803%" stop-color="#626262"/>

<stop  offset="100%" stop-color="#C8C8C8"/>

<stop  offset="100%" stop-color="#D6D1A0"/>
</linearGradient>

<linearGradient id="Gradient_7" gradientUnits="userSpaceOnUse" x1="31.6375" y1="74.85" x2="91.8625" y2="74.85" spreadMethod="pad">
<stop  offset="0.39215686274509803%" stop-color="#626262"/>

<stop  offset="100%" stop-color="#C8C8C8"/>

<stop  offset="100%" stop-color="#D6D1A0"/>
</linearGradient>

<linearGradient id="Gradient_8" gradientUnits="userSpaceOnUse" x1="-18" y1="99.7" x2="117" y2="99.7" spreadMethod="pad">
<stop  offset="0.39215686274509803%" stop-color="#626262"/>

<stop  offset="100%" stop-color="#C8C8C8"/>

<stop  offset="100%" stop-color="#D6D1A0"/>
</linearGradient>

<g id="Layer0_0_FILL">
<path fill="url(#Gradient_1)" stroke="none" d="
M 46.3 326.2
L 46.3 310.85
Q 6.1 315.2 6.65 347.1 26.1 373.75 71.55 374.3 129.6 376 135.8 345 124.9 314.65 97.4 311.4
L 97.4 328.65
Q 68.65 340.1 46.3 326.2 Z"/>

<path fill="url(#Gradient_2)" stroke="none" d="
M 46.3 310.85
L 46.3 326.2
Q 68.65 340.1 97.4 328.65
L 97.4 311.4 97.4 296.05
Q 72.05 307.85 46.3 296.05
L 46.3 310.85 Z"/>

<path fill="url(#Gradient_3)" stroke="none" d="
M 97.4 296.05
L 104.8 296.05 212.25 337.65
Q 219.05 343 221.6 349.8 223.3 353.7 225.05 361.5 226.05 365.2 233.65 367.2 240.95 369.35 250.5 368.75 273.9 368 278.35 357.1 274.25 336.4 266.8 323.85 258.35 309.65 242.2 299.15
L 131.25 257.2 109.4 229.55
Q 68.65 252.3 31.2 229.55 28.2 250.95 28.6 262.4 29.15 278.35 35.7 288.5
L 46.3 296.05
Q 72.05 307.85 97.4 296.05 Z"/>

<path fill="url(#Gradient_4)" stroke="none" d="
M 92.35 182.25
Q 70.3 195.05 49.1 182.25
L 31.9 223.7
Q 31.2 225.8 31.2 229.55 68.65 252.3 109.4 229.55
L 92.35 182.25 Z"/>

<path fill="url(#Gradient_5)" stroke="none" d="
M 57.75 116.85
L 56.6 161.3
Q 73.2 171.9 84.1 161.3
L 84.1 120.85
Q 82.95 120.85 81.8 120.85
L 81.7 120.85
Q 67.95 120.85 57.75 116.85 Z"/>

<path fill="url(#Gradient_6)" stroke="none" d="
M 56.6 161.3
L 49.1 182.25
Q 70.3 195.05 92.35 182.25
L 84.1 161.3
Q 73.2 171.9 56.6 161.3 Z"/>

<path fill="url(#Gradient_7)" stroke="none" d="
M 48.3 66.05
Q 49.55 70.8 54.65 74.35 50.05 75.45 47.65 78
L 43.85 83.25
Q 50.7 94.3 71.95 96 93.8 97.5 104.15 86.35 101.8 71.5 68.65 69.95
L 61.55 56.1
Q 57.1 50.15 47.95 56.1 47.25 62.9 48.3 66.05 Z"/>

<path fill="url(#Gradient_8)" stroke="none" d="
M 134.3 82.4
Q 119.05 77.3 104.15 86.35 93.8 97.5 71.95 96 50.7 94.3 43.85 83.25 40.95 85.25 40.95 90.15 33 85.55 25.4 85.1 18.85 84.7 15.85 87.3 5.05 96.85 15 111.3 18.05 113.3 28.1 112.65 37.85 112 47.95 109.1 48.2 103.95 47.25 101.45 46.1 98.95 45.4 97.45 46.1 98.95 47.25 101.45 48.2 103.95 47.95 109.1 50.7 112.5 55.3 115.5 56.6 116.3 57.75 116.85 67.95 120.85 81.7 120.85
L 81.8 120.85
Q 82.85 120.5 84.1 120.4 77.4 107.1 89.25 103.35 77.4 107.1 84.1 120.4 84.3 120.4 84.5 120.4 96.55 137.55 106.95 129.4 115.15 123.1 111.4 113.4 108.15 104.7 100.55 102.3 119.4 107 138.65 102.3 149.05 87.5 134.3 82.4 Z"/>
</g>

<path id="Layer0_0_1_STROKES" stroke="#000000" stroke-width="2" stroke-linejoin="round" stroke-linecap="round" fill="none" d="
M 84.1 120.4
Q 84.3 120.4 84.5 120.4 96.55 137.55 106.95 129.4 115.15 123.1 111.4 113.4 108.15 104.7 100.55 102.3 119.4 107 138.65 102.3 149.05 87.5 134.3 82.4 119.05 77.3 104.15 86.35 93.8 97.5 71.95 96 50.7 94.3 43.85 83.25 40.95 85.25 40.95 90.15 33 85.55 25.4 85.1 18.85 84.7 15.85 87.3 5.05 96.85 15 111.3 18.05 113.3 28.1 112.65 37.85 112 47.95 109.1 48.2 103.95 47.25 101.45 46.1 98.95 45.4 97.45
M 104.15 86.35
Q 101.8 71.5 68.65 69.95
L 61.55 56.1
Q 57.1 50.15 47.95 56.1 47.25 62.9 48.3 66.05 49.55 70.8 54.65 74.35 50.05 75.45 47.65 78
L 43.85 83.25
M 47.95 109.1
Q 50.7 112.5 55.3 115.5 56.6 116.3 57.75 116.85 67.95 120.85 81.7 120.85
L 81.8 120.85
Q 82.85 120.5 84.1 120.4 77.4 107.1 89.25 103.35
M 56.6 161.3
L 49.1 182.25
Q 70.3 195.05 92.35 182.25
L 84.1 161.3
Q 73.2 171.9 56.6 161.3
L 57.75 116.85
M 84.1 120.4
L 84.1 120.85 84.1 161.3
M 97.4 296.05
L 104.8 296.05 212.25 337.65
Q 219.05 343 221.6 349.8 223.3 353.7 225.05 361.5 226.05 365.2 233.65 367.2 240.95 369.35 250.5 368.75 273.9 368 278.35 357.1 274.25 336.4 266.8 323.85 258.35 309.65 242.2 299.15
L 131.25 257.2 109.4 229.55
Q 68.65 252.3 31.2 229.55 28.2 250.95 28.6 262.4 29.15 278.35 35.7 288.5
L 46.3 296.05
Q 72.05 307.85 97.4 296.05
L 97.4 311.4
Q 124.9 314.65 135.8 345 129.6 376 71.55 374.3 26.1 373.75 6.65 347.1 6.1 315.2 46.3 310.85
L 46.3 296.05
M 49.1 182.25
L 31.9 223.7
Q 31.2 225.8 31.2 229.55
M 46.3 310.85
L 46.3 326.2
Q 68.65 340.1 97.4 328.65
L 97.4 311.4
M 109.4 229.55
L 92.35 182.25"/>
</defs>

<g transform="matrix( 1, 0, 0, 1, 0,0) ">
<use xlink:href="#Layer0_0_FILL"/>

<use xlink:href="#Layer0_0_1_STROKES"/>
</g>
</svg>
